X: 4097
T: CUFFE ST.
R: Reel.
%R: reel
B: James Kerr "Merry Melodies" v.4 p.13 #97
Z: 2016 John Chambers <jc:trillian.mit.edu>
M: C|
L: 1/8
K: Em
(dc) |\
BE (3EEE (BA)FA | dBAF DFAc |\
BE (3EEE (BA)FA | dBAF E2 ::\
(FE) |\
DFA^c dcdA |
(3(B^cd) (Ad) (3(Bcd) (Ad) |\
[1 DFA^c dfec | (3(Bcd) (AF) E2 :|\
[2 fed^c dcBA | BdAF E2 |]

%%sep 1 1 500
%%sep 1 1 500

